X:9
T: Pig in a Pen
M:4/4
L:1/8
K:G clef=treble 
"G"B2 BB d3 d | B2 BB A-  G2 z | B3 B c2 d2 | "C" e4- g4 | 
"G" g2 g2 g2 dd | eedd d3 G | "D"d2 d2 g B3 | A2 z2 z4 || 
|"8 Bars for Solos :)" "G"z4 z4 | z4 z4 | z4 z4 | "C"z4 z4 | 
"C7"z4 z4 | "G"z4 z4 | "D"z4 z4 | "G"z4 z4 |]
W: I got a pig at home in a pen corn to feed 'im on
W:All I need is a pretty little girl to feed 'im when I'm gone.
W: 
W:Goin' on the mountain to sow a little cane
W:Raise a barrel of Sorghum sweet lil' Liza Jane.
W:
W:Black cloud's a-risin' surest sign of rain
W:Get the old grey bonnet on Little Liza Jane.
W:
W:Yonder comes that gal of mine how you think I know
W:Can tell by that Gingham gown hangin' down so low.
W:
W:Bake them biscuits baby bake 'em good n' brown
W:When you get them biscuits baked we're Alabama bound.
W:
W:When she sees me comin' she wrings her hands and cries
W:Yonder comes the sweetest boy that ever lived or died.
W:
W:Now when she sees me leavin'she wrings her hands and cries
W:Yonder goes the meanest boy that ever lived or died.

